!! 00009] TT[TB
!! Zhongguo changpian 1959; 3-6950Z (*650704)  (J 5613)
!!!OTL: Laodong muofan Anbu qima
!!!ARE: Neimeng
!! Ethnic Group: Menggu
!! MM, vorhanden
!!!SCT: C0524
!!!YEM: Copyright 1995, estate of Helmut Schaffrath.
**kern
*ICvox
*Ivox
*M2/4
*k[]
*C:
{4.e
8a
=1
8g
4e
8dd
=2
2a
=3
8dd
4cc
8ee}
=4
{4.a
8cc
=5
8a
8g
4e
=6
8a
4g
8ee
=7
2a}
=8
{8a
8g
8e
8a
=9
8g
4e
8c
=10
4d
4e
=11
2a}
=12
{4d
8c
8A
=13
8d
8g
4e
=14
8c
[4.A
=15
2A]}
==
!!!AGN: NN
!! Text= Original, Mel = Bearbeitung
!!!ONB: ESAC (Essen Associative Code) Database: CHINA
!!!AMT: simple duple
!!!AIN: vox
!!!EED: Helmut Schaffrath
!!!EEV: 1.0
*-
!!!ONB: Tied note syntax fixed by Craig Sapp, 2004/05/03/
